X: 672
T: Da suanzao
%%abc-version 2.0
%%abcx-abcm2ps-target-version 5.9.1 (29 Sep 2008)
%%abc-creator hum2abc beta
%%abcx-conversion-date 2013/10/02 07:52:30
%%abc-edited-by Helmut Schaffrath
%%humdrum-veritas 2949815864
%%humdrum-veritas-data 2444034264
%%continueall 1
%%barnumbers 0
L: 1/8
M: 2/4
K: D
A B/ A/F2 [I:setbarnb 1]| 
d f e f | 
A d B A | 
F EF2 | 
e de2 | 
f e/ d/A2 | 
d e/ d/ B/ A/ F | 
A4 |]  



